dist/images/gifts-solid.svg

<?xml version="1.0" encoding="UTF-8"?>
<svg width="31px" height="25px" viewBox="0 0 31 25" version="1.1" xmlns="http://www.w3.org/2000/svg" xmlns:xlink="http://www.w3.org/1999/xlink">
    <title>gifts-solid</title>
    <g id="Design-V1" stroke="none" stroke-width="1" fill="none" fill-rule="evenodd">
        <g id="gifts-solid" transform="translate(0.828065, 0.500000)" fill="#FFFFFF" fill-rule="nonzero">
            <path d="M11.0089202,8.92701713 C11.0958568,7.51772893 11.8005009,6.12674318 13.022189,5.27567952 C12.7842572,4.78151353 12.2946669,4.43834271 11.7135643,4.43834271 L10.3683346,4.43834271 L11.7730472,3.43170828 C12.1024912,3.19835211 12.1802766,2.74079101 11.9423448,2.41134702 L11.516813,1.81651758 C11.2834568,1.48707359 10.8258957,1.4092882 10.4964517,1.64721997 L9.03225619,2.6950349 L9.55845145,1.29489792 C9.7002954,0.915122207 9.50811973,0.494165992 9.12834402,0.35232205 L8.44200236,0.0960878318 C8.06222665,-0.0457561104 7.64127043,0.146419553 7.49942649,0.526195269 L6.58887989,2.95126912 L5.6783333,0.521619658 C5.53648935,0.141843942 5.11553314,-0.0503317214 4.73575742,0.0915122207 L4.04941577,0.347746439 C3.66964005,0.489590381 3.47746439,0.915122207 3.62388394,1.29032231 L4.15007921,2.69045929 L2.68130807,1.64721997 C2.35186407,1.41386381 1.89430297,1.48707359 1.66094681,1.81651758 L1.23541498,2.41134702 C1.00205882,2.74079101 1.07526859,3.19835211 1.40471259,3.43170828 L2.80942518,4.43834271 L1.46419553,4.43834271 C0.654312378,4.43834271 0,5.09265508 0,5.90253824 L0,22.0086891 C0,22.8185722 0.654312378,23.4728846 1.46419553,23.4728846 L9.19240257,23.4728846 C8.94074396,23.0382016 8.78517319,22.5440356 8.78517319,22.0086891 L8.78517319,11.7593204 C8.78517319,10.3912127 9.73690028,9.24273429 11.0089202,8.92701713 Z M10.2493687,22.0086891 C10.2493687,22.8185722 10.9036811,23.4728846 11.7135643,23.4728846 L19.0345419,23.4728846 L19.0345419,17.6161025 L10.2493687,17.6161025 L10.2493687,22.0086891 Z M20.4987374,23.4728846 L27.8197151,23.4728846 C28.6295983,23.4728846 29.2839106,22.8185722 29.2839106,22.0086891 L29.2839106,17.6161025 L20.4987374,17.6161025 L20.4987374,23.4728846 Z M27.8197151,10.2951248 L26.8862904,10.2951248 C27.0052563,9.94737839 27.0876173,9.58590512 27.0876173,9.2061294 C27.0876173,7.58178749 25.8522024,5.90253824 23.7886018,5.90253824 C21.5877329,5.90253824 20.315713,8.0851047 19.7666397,9.34797335 C19.2129907,8.0851047 17.9409709,5.90253824 15.7446776,5.90253824 C13.681077,5.90253824 12.445662,7.58178749 12.445662,9.2061294 C12.445662,9.58590512 12.5234474,9.94737839 12.6469889,10.2951248 L11.7135643,10.2951248 C10.9036811,10.2951248 10.2493687,10.9494372 10.2493687,11.7593204 L10.2493687,16.151907 L19.0345419,16.151907 L19.0345419,10.2951248 L19.7346104,10.2951248 L19.7666397,10.2859736 L19.798669,10.2951248 L20.4987374,10.2951248 L20.4987374,16.151907 L29.2839106,16.151907 L29.2839106,11.7593204 C29.2839106,10.9494372 28.6295983,10.2951248 27.8197151,10.2951248 Z M15.3740531,10.2951248 C15.2505116,10.2310663 15.1406969,10.1578565 15.0446091,10.0754955 C14.7105895,9.7826564 14.6419553,9.44406118 14.6419553,9.2061294 C14.6419553,8.76229513 14.9347944,8.09883153 15.7446776,8.09883153 C16.6003168,8.09883153 17.3735951,9.35254896 17.7808245,10.2951248 L15.3740531,10.2951248 Z M24.4886703,10.0754955 C24.3925824,10.1578565 24.2827678,10.2310663 24.1592263,10.2951248 L21.7524549,10.2951248 C22.1551086,9.36627579 22.9329625,8.09883153 23.7886018,8.09883153 C24.5984849,8.09883153 24.891324,8.76229513 24.891324,9.2061294 C24.891324,9.44406118 24.8226899,9.7826564 24.4886703,10.0754955 Z" id="Shape"></path>
        </g>
    </g>
</svg>

<svg width="31" height="25" viewBox="0 0 31 25" version="1.1" xmlns="http://www.w3.org/2000/svg"><g id="Design-V1" stroke="none" stroke-width="1" fill="none" fill-rule="evenodd"><g id="gifts-solid" transform="translate(.828 .5)" fill="#FFF" fill-rule="nonzero"><path d="M11.009 8.927c.087-1.41.792-2.8 2.013-3.651a1.45 1.45 0 00-1.308-.838h-1.346l1.405-1.006a.728.728 0 00.17-1.02l-.426-.595a.728.728 0 00-1.02-.17L9.031 2.695l.526-1.4a.732.732 0 00-.43-.943L8.442.096a.732.732 0 00-.943.43l-.91 2.425-.91-2.43a.732.732 0 00-.943-.43l-.687.257a.727.727 0 00-.425.942l.526 1.4-1.469-1.043a.732.732 0 00-1.02.17l-.426.594a.732.732 0 00.17 1.02l1.404 1.007H1.464C.654 4.438 0 5.093 0 5.903v16.106c0 .81.654 1.464 1.464 1.464h7.728a2.907 2.907 0 01-.407-1.464v-10.25c0-1.368.952-2.516 2.224-2.832zm-.76 13.082c0 .81.655 1.464 1.465 1.464h7.32v-5.857H10.25v4.393zm10.25 1.464h7.32c.81 0 1.465-.654 1.465-1.464v-4.393h-8.785v5.857zm7.32-13.178h-.933c.12-.348.202-.71.202-1.089 0-1.624-1.236-3.303-3.3-3.303-2.2 0-3.472 2.182-4.021 3.445-.554-1.263-1.826-3.445-4.022-3.445-2.064 0-3.3 1.679-3.3 3.303 0 .38.078.741.202 1.09h-.933c-.81 0-1.465.653-1.465 1.463v4.393h8.786v-5.857h.7l.032-.009.032.01h.7v5.856h8.785v-4.393c0-.81-.654-1.464-1.464-1.464zm-12.445 0a1.72 1.72 0 01-.33-.22 1.123 1.123 0 01-.402-.869c0-.444.293-1.107 1.103-1.107.855 0 1.629 1.254 2.036 2.196h-2.407zm9.115-.22a1.72 1.72 0 01-.33.22h-2.407c.403-.929 1.181-2.196 2.037-2.196.81 0 1.102.663 1.102 1.107 0 .238-.068.577-.402.87z" id="Shape"/></g></g></svg>
